X:96
T: Muellerstoechterlein
N: D0141
O: Europa, Mitteleuropa, Deutschland, Oberfranken
N: Inzipit = Variante zum Lied
R: Ballade
M: 4/4
L: 1/8
K: F
FG | AAAAAcBA | AGG2z2
GA | B2BBBdcB | BAA2z2
c2 | c2Acc2Ac | fedc2z2
c | c2fcc2Ac | B2GBA2
c2 | c2Acc2Ac | fedc2z2
c | c2fcc2Ac | B2GBA2

